app/assets/images/Contenido/Check.svg

<svg fill="none" height="60" viewBox="0 0 60 60" width="60" xmlns="http://www.w3.org/2000/svg"><path d="m30 0c-16.5 0-30 13.5-30 30s13.5 30 30 30 30-13.5 30-30-13.5-30-30-30zm-6 45-15-15 4.23-4.23 10.77 10.74 22.77-22.77 4.23 4.26z" fill="#006eb4"/></svg>

<svg width="60" height="60" viewBox="0 0 60 60" fill="none" xmlns="http://www.w3.org/2000/svg">
<path d="M30 0C13.5 0 0 13.5 0 30C0 46.5 13.5 60 30 60C46.5 60 60 46.5 60 30C60 13.5 46.5 0 30 0ZM24 45L9 30L13.23 25.77L24 36.51L46.77 13.74L51 18L24 45Z" fill="#006EB4"/>
</svg>
